X:175
T:Oud Pick Waltz
M:3/4
L:1/4
C:Frederick E. Wilson copyright 2005
R:Waltz
K:C
"D"(D3|D)^FG|"D/F#"(A3|A)GA|"Gm"(_B3|_B)c_B|"D"(A3|A)GA|"Cm"(d3|d)c_B|"D
"(A3|A)G^F|"Cm"(G3|G)^F_E|"D"(D3|D3):|
"Cm"(_E3|_E)=F_E|"D"(D3|D)CD|"Cm"(_E3|_E)G_B|"D"(A3|A)GA|
"Gm"(_B3|B)c^c|"D"(d3|d)=c_B|!"Cm"(A3|A)G_E|1"D"(D3|D2) D:|2"D"(D3|D)GA|
|
"Gm"_B/2c/2 _B/2A/2 _B|d/2d/2 c/2c/2 _B/2_B/2|
"D"A/2_B/2 A/2G/2 A|c/2c/2 _B/2B/2 A/2A/2|
"Gm"G/2A/2 G/2^F/2 G/2A/2|_B c ^c| "D"(d3|d2)d|
"Cm"g3/2g/2 g|gf_e|"D"d3/2_e/2 c|d2 d|1"Cm"_e3/2f/2 g|_e/2f/2 g/2f/2 _e/
2c/2|"D"(d
3|d2) c:|
2 "Cm"c3/2c/2 c/2d/2|c/2_B/2 A/2G/2 ^F/2_E/2|"D"D3/2_E/2 D/2C/2|D3||
